img/rocking-chair.svg

<svg xmlns="http://www.w3.org/2000/svg" viewBox="-324.9 264 51.7 74.1" enable-background="new -324.9 264 51.7 74.1"><path d="M-323.8 332.5c6.7 3.6 14.2 5.5 21.9 5.5 10.3 0 20-3.3 28.1-9.6.9-.7 1-1.9.4-2.7-.7-.9-1.9-1-2.7-.4-2.7 2.1-5.5 3.8-8.5 5.1l-.7-17.5 8.9-47c.2-.9-.4-1.8-1.3-2-.9-.2-1.8.4-2 1.3l-6.2 32.8-33.5-1c-.6 0-1.3.5-1.3 1.2s.5 1.3 1.2 1.3l5.4.2-2 31.7c-2-.7-3.9-1.5-5.7-2.5-1-.5-2.1-.2-2.7.8-.6 1.1-.3 2.3.7 2.8zm35.3-9.8l-24.4-.5.5-7.7 23.6.5.3 7.7zm-18.9-12.4l.6-10.2 4.2.1-1 10.2c.1 0-3.8-.1-3.8-.1zm6.3-10l4.2.1-1.3 10.2-3.9-.1 1-10.2zm5.6.1l4.2.1-1.6 10.1-3.9-.1 1.3-10.1zm-16-.4l3.3.1-.7 10.3-3.3-.1.7-10.3zm24.9.7l-1.9 10.1-3.1-.1 1.6-10.1 3.4.1zm-15.4 33.4c-3.9 0-7.8-.6-11.5-1.6l.5-8.4 24.6.5.3 7.2c-4.4 1.5-9.1 2.3-13.9 2.3z"/></svg>

<?xml version="1.0" encoding="utf-8"?>
<!-- Generator: Adobe Illustrator 18.1.1, SVG Export Plug-In . SVG Version: 6.00 Build 0)  -->
<!DOCTYPE svg PUBLIC "-//W3C//DTD SVG 1.1//EN" "http://www.w3.org/Graphics/SVG/1.1/DTD/svg11.dtd">
<svg version="1.1" id="Layer_1" xmlns="http://www.w3.org/2000/svg" xmlns:xlink="http://www.w3.org/1999/xlink" x="0px" y="0px"
	 viewBox="-324.9 264 51.7 74.1" enable-background="new -324.9 264 51.7 74.1" xml:space="preserve">
<path d="M-323.8,332.5c6.7,3.6,14.2,5.5,21.9,5.5c10.3,0,20-3.3,28.1-9.6c0.9-0.7,1-1.9,0.4-2.7c-0.7-0.9-1.9-1-2.7-0.4
	c-2.7,2.1-5.5,3.8-8.5,5.1l-0.7-17.5l8.9-47c0.2-0.9-0.4-1.8-1.3-2c-0.9-0.2-1.8,0.4-2,1.3l-6.2,32.8l-33.5-1
	c-0.6,0-1.3,0.5-1.3,1.2c0,0.7,0.5,1.3,1.2,1.3l5.4,0.2l-2,31.7c-2-0.7-3.9-1.5-5.7-2.5c-1-0.5-2.1-0.2-2.7,0.8
	C-325.1,330.8-324.8,332-323.8,332.5z M-288.5,322.7l-24.4-0.5l0.5-7.7l23.6,0.5L-288.5,322.7z M-307.4,310.3l0.6-10.2l4.2,0.1
	l-1,10.2C-303.5,310.4-307.4,310.3-307.4,310.3z M-301.1,300.3l4.2,0.1l-1.3,10.2l-3.9-0.1L-301.1,300.3z M-295.5,300.4l4.2,0.1
	l-1.6,10.1l-3.9-0.1L-295.5,300.4z M-311.5,300l3.3,0.1l-0.7,10.3l-3.3-0.1L-311.5,300z M-286.6,300.7l-1.9,10.1l-3.1-0.1l1.6-10.1
	L-286.6,300.7z M-302,334.1c-3.9,0-7.8-0.6-11.5-1.6l0.5-8.4l24.6,0.5l0.3,7.2C-292.5,333.3-297.2,334.1-302,334.1z"/>
</svg>
